flaticon/music/piano.svg

<svg xmlns="http://www.w3.org/2000/svg" width="32" height="32" viewBox="0 0 24 24">
    <path d="M 20.839844 11.132812 C 18.773438 10.863281 16.398438 10.082031 16.398438 6.398438 L 16.398438 6.199219 C 16.398438 2.78125 13.617188 0 10.199219 0 L 6.601562 0 C 3.179688 0 0.398438 2.78125 0.398438 6.199219 L 0.398438 24 L 23.601562 24 L 23.601562 14.25 C 23.601562 12.675781 22.414062 11.335938 20.839844 11.132812 Z M 3.601562 23.199219 L 1.199219 23.199219 L 1.199219 16.398438 L 2.800781 16.398438 L 2.800781 21.601562 L 3.601562 21.601562 Z M 6.800781 23.199219 L 4.398438 23.199219 L 4.398438 21.601562 L 5.199219 21.601562 L 5.199219 16.398438 L 6 16.398438 L 6 21.601562 L 6.800781 21.601562 Z M 10 23.199219 L 7.601562 23.199219 L 7.601562 21.601562 L 8.398438 21.601562 L 8.398438 16.398438 L 9.199219 16.398438 L 9.199219 21.601562 L 10 21.601562 Z M 13.199219 23.199219 L 10.800781 23.199219 L 10.800781 21.601562 L 11.601562 21.601562 L 11.601562 16.398438 L 12.398438 16.398438 L 12.398438 21.601562 L 13.199219 21.601562 Z M 16.398438 23.199219 L 14 23.199219 L 14 21.601562 L 14.800781 21.601562 L 14.800781 16.398438 L 15.601562 16.398438 L 15.601562 21.601562 L 16.398438 21.601562 Z M 19.601562 23.199219 L 17.199219 23.199219 L 17.199219 21.601562 L 18 21.601562 L 18 16.398438 L 18.800781 16.398438 L 18.800781 21.601562 L 19.601562 21.601562 Z M 22.800781 23.199219 L 20.398438 23.199219 L 20.398438 21.601562 L 21.199219 21.601562 L 21.199219 16.398438 L 22.800781 16.398438 Z M 21.199219 15.601562 L 1.199219 15.601562 L 1.199219 6.199219 C 1.199219 3.222656 3.621094 0.800781 6.601562 0.800781 L 10.199219 0.800781 C 13.175781 0.800781 15.601562 3.222656 15.601562 6.199219 L 15.601562 6.398438 C 15.601562 9.667969 17.28125 11.476562 20.738281 11.925781 C 21.914062 12.078125 22.800781 13.078125 22.800781 14.25 L 22.800781 15.601562 Z M 21.199219 15.601562"/>
</svg>

<svg xmlns="http://www.w3.org/2000/svg" width="32" height="32" viewBox="0 0 24 24">
    <path d="M20.84 11.133c-2.067-.27-4.442-1.051-4.442-4.735V6.2C16.398 2.781 13.618 0 10.2 0H6.602A6.207 6.207 0 0 0 .398 6.2V24h23.204v-9.75c0-1.574-1.188-2.914-2.762-3.117zM3.602 23.199H1.199v-6.8h1.602v5.203h.8zm3.199 0H4.398v-1.597H5.2v-5.204H6v5.204h.8zm3.199 0H7.602v-1.597h.796v-5.204H9.2v5.204H10zm3.2 0h-2.4v-1.597h.802v-5.204h.796v5.204h.801zm3.198 0H14v-1.597h.8v-5.204h.802v5.204h.796zm3.204 0h-2.403v-1.597H18v-5.204h.8v5.204h.802zm3.199 0h-2.403v-1.597h.801v-5.204h1.602zm-1.602-7.597h-20V6.199A5.406 5.406 0 0 1 6.602.801h3.597a5.408 5.408 0 0 1 5.403 5.398v.2c0 3.269 1.68 5.078 5.136 5.527a2.36 2.36 0 0 1 2.063 2.324v1.352zm0 0"/>
</svg>
